X:1
T:Title
%%score { ( 1 4 ) | ( 2 3 ) }
L:1/8
Q:1/4=152
M:3/4
K:D
V:1 treble nm="Grand Piano"
V:4 treble 
V:2 bass 
V:3 bass 
V:1
 A2 [DFA]2 [A,=CFA]2 | A2 [CGA]2 [A,EGA]2 | A2 B2 c2 | d4 z2 | B2 d2 B2 | d2 A2 ^G2 | G2 G2 F2 | %7
w: Charles~S.~Gabriel * *|||||||
 E4 z2 | [EG]2 [A,CEG]2 [A,CEG]2 | [EG]4 z2 | [GB]2 [GB]2 [GB]2 | [GB]4 z2 | F2 G2 ^G2 | %13
w: ||||||
 A2 B2 [Dd]2 | [CEAc]2 [E^Gd]2 [EGB]2 | e6 | [Fd]2 [Fd]2 [Fd]2 | [Fd]4 D2 | [Dd]2 [Dd]2 [Ed]2 | %19
w: ||||||
 [=Fd]4 [DF^G]2 | [DFA]2 [Ac]2 [GB]2 | [FA]3 [GB] [FA]2 | [EG]2 [FA]2 [EG]2 | [DF]4 z2 | %24
w: |||||
 [Fd]2 [Fd]2 [Fd]2 | [Fd]4 D2 | [Dd]2 [Dd]2 [Ed]2 | [=Fd]4 [DF^G]2 | %28
w: ||||
 [A,DFA]2 [CEA]2 [DA]2[Q:1/4=150][Q:1/4=148][Q:1/4=145][Q:1/4=143][Q:1/4=141][Q:1/4=139][Q:1/4=136][Q:1/4=134][Q:1/4=132][Q:1/4=130] | %29
w: |
 [^Ge]4 d2[Q:1/4=127][Q:1/4=125][Q:1/4=123][Q:1/4=121][Q:1/4=118][Q:1/4=116] | c2 c2 c2 | [Fd]6 |] %32
w: |||
V:2
 z2 A,2 D,2 | z2 A,2 C,2 | z2[K:treble] [A,CG]2 [A,EG]2 | z2 [A,D]2[K:treble] [A,DF]2 | %4
 z2 [B,DG]2 [B,DG]2 | z2 [A,D]2 [=F,B,D]2 | z2 [A,C]2 [D,A,D]2 | A,,2 C,2 E,2 | B,,2 G,2 G,2 | %9
 A,,2 z[K:treble] F G,2 | A,,2 [G,A,C]2 [G,A,C]2 | A,,2 [G,A,]2 [G,A,C]2 | %12
 [D,A,D]2 [E,A,C]2 [F,B,D]2 | [A,D]2 B,2 =F,2 | z2 D2 D2 | A,,2 B,,2 C,2 | %16
 [D,A,]2 [D,A,]2 [D,A,]2 | [=C,A,]4 [C,F,]2 | [B,,G,]2 [B,,G,]2 [B,,G,]2 | [^A,,^G,]4 A,,2 | %20
 A,,2 [A,,A,]2 [A,,A,]2 | [A,,A,]3 [A,,A,] [A,,A,]2 | [A,,A,]2 [A,,A,]2 [A,,A,]2 | [D,A,]4 z2 | %24
 [D,A,]2 [D,A,]2 [D,A,]2 | [=C,A,]4 [C,F,]2 | [B,,G,]2 [B,,G,]2 [B,,G,]2 | [^A,,^G,]4 A,,2 | %28
 A,,2 G,2 F,2 | [E,D]4[K:treble] [B,E^G]2 | [A,EG]2 [A,EG]2 [A,G]2 | [D,A,]6 |] %32
V:3
 D,4 z2 | E,4 z2 | A,,4[K:treble] z2 | D,4[K:treble] z2 | G,4 z2 | F,4 z2 | E,4 z2 | x6 | x6 | %9
 z2 G,2[K:treble] z2 | x6 | x6 | x6 | F,4 z2 | E,4 z2 | x6 | x6 | x6 | x6 | x6 | x6 | x6 | x6 | %23
 x6 | x6 | x6 | x6 | x6 | x6 | x4[K:treble] x2 | x6 | x6 |] %32
V:4
 x6 | x6 | x6 | z2 F2 A2 | x6 | x6 | x6 | z2 [A,C]2 [A,C]2 | x6 | z2 [A,C]2 [A,CE]2 | x6 | %11
 z2 C2 E2 | x6 | x6 | x6 | [CA]2 [DA]2 [EGA]2 | x6 | x6 | x6 | x6 | x6 | x6 | x6 | x6 | x6 | x6 | %26
 x6 | x6 | x6 | x6 | x6 | x6 |] %32

